src/main/resources/icons/UIDesignerIcons/com/intellij/uiDesigner/icons/inspectionSuppression.svg

<svg xmlns="http://www.w3.org/2000/svg" width="16" height="16" viewBox="0 0 16 16">
  <g fill="none" fill-rule="evenodd">
    <path fill="#F26522" d="M10.7142136,14.3071068 L10.0071068,15.0142136 L8.00710678,13.0142136 L6.71421356,14.3071068 L6.00710678,15.0142136 L4.00710678,13.0142136 L2.00710678,15.0142136 L1.3,14.3071068 L4.00710678,11.6 L4.71421356,12.3071068 L6.00710678,13.6 L8.00710678,11.6 L8.71421356,12.3071068 L10.0071068,13.6 L11.3,12.3071068 L12.0071068,11.6 L14.7142136,14.3071068 L14.0071068,15.0142136 L12.0071068,13.0142136 L10.7142136,14.3071068 Z"/>
    <path fill="#9AA7B0" fill-opacity=".8" d="M8.69999959,5.8 L13.4999996,5.8 L13.4999996,7.2 L8.69999959,7.2 L8.69999959,12 L7.29999959,12 L7.29999959,7.2 L2.49999959,7.2 L2.49999959,5.8 L7.29999959,5.8 L7.29999959,1 L8.69999959,1 L8.69999959,5.8 Z" transform="rotate(45 8 6.5)"/>
  </g>
</svg>

<svg xmlns="http://www.w3.org/2000/svg" width="16" height="16" viewBox="0 0 16 16"><rect id="frame" width="16" height="16" fill="none"/><g fill="none" fill-rule="evenodd"><path fill="#F26522" d="M10.714 14.307l-.707.707-2-2-1.293 1.293-.707.707-2-2-2 2-.707-.707L4.007 11.6l.707.707L6.007 13.6l2-2 .707.707 1.293 1.293 1.293-1.293.707-.707 2.707 2.707-.707.707-2-2-1.293 1.293z"/><path fill="#9AA7B0" fill-opacity=".8" d="M8.99 6.5l3.394 3.394-.99.99L8 7.49l-3.394 3.394-.99-.99L7.01 6.5 3.616 3.106l.99-.99L8 5.51l3.394-3.394.99.99L8.99 6.5z"/></g></svg>
